Newaita-dark/apps/16/com.github.dcharles525.pho.svg

<svg height="16" viewBox="0 0 16 16" width="16" xmlns="http://www.w3.org/2000/svg" xmlns:xlink="http://www.w3.org/1999/xlink"><linearGradient id="a"><stop offset="0" stop-opacity=".313726"/><stop offset=".222222" stop-opacity=".27451"/><stop offset="1" stop-opacity="0"/></linearGradient><radialGradient id="b" cx="450.908936" cy="189.579361" gradientTransform="matrix(.00000009 -.0390662 -.0703192 -.00000005 20.607772 31.797665)" gradientUnits="userSpaceOnUse" r="21.166656" xlink:href="#a"/><radialGradient id="c" cx="450.908936" cy="189.579361" gradientTransform="matrix(-.00000009 .0390662 .0703192 .00000005 -6.385058 -3.763741)" gradientUnits="userSpaceOnUse" r="21.166656" xlink:href="#a"/><radialGradient id="d" cx="450.908936" cy="189.579361" gradientTransform="matrix(-.00000009 -.0390662 .0703192 -.00000005 -6.385058 31.797665)" gradientUnits="userSpaceOnUse" r="21.166656" xlink:href="#a"/><radialGradient id="e" cx="450.908936" cy="189.579361" gradientTransform="matrix(.00000009 .0390662 -.0703192 .00000005 20.607771 -3.763741)" gradientUnits="userSpaceOnUse" r="21.166656" xlink:href="#a"/><linearGradient id="f" gradientTransform="matrix(.00190858 0 0 .031253 6.624052 6.719392)" gradientUnits="userSpaceOnUse" x1="255.323059" x2="255.323044" y1="233.5" y2="254.666656"><stop offset="0" stop-opacity=".27451"/><stop offset="1" stop-opacity="0"/></linearGradient><linearGradient id="g" gradientUnits="userSpaceOnUse" x1="7.9383212" x2="7.9383212" y1="14.0726808" y2="1.37515289828"><stop offset="0" stop-color="#66bb6a"/><stop offset="1" stop-color="#81c784"/></linearGradient><path d="m7.441406 14.015625h1.324219v-.660156h-1.324219zm0 0" fill="url(#b)"/><path d="m6.78125 14.015625h-1.324219v.664063h1.324219zm0 0" fill="url(#c)"/><path d="m6.78125 14.015625h-1.324219v-.660156h1.324219zm0 0" fill="url(#d)"/><path d="m7.441406 14.015625h1.324219v.664063h-1.324219zm0 0" fill="url(#e)"/><path d="m6.78125 13.851562h.660156v.828126h-.660156zm0 0" fill="url(#f)"/><path d="m9.367188 1.613281c-.632813-.363281-1.667969-.023437-2.175782.851563-.574218.996094.542969 2.710937.558594 4.570312-.914062-1.617187-.800781-3.660156-1.800781-4.238281-.875-.503906-1.945313-.28125-2.308594.351563-.503906.875-.253906 1.535156-.03125 1.875.226563.339843.226563.339843-.183594.316406-.40625-.023438-1.101562.089844-1.609375.964844-.363281.632812-.097656 1.628906.851563 2.175781 1.023437.589843 2.910156-.800781 4.765625-.675781-1.640625 1.042968-3.832032.878906-4.433594 1.917968-.503906.875-.277344 1.945313.351562 2.308594.875.503906 1.539063.257812 1.878907.03125.339843-.222656.339843-.222656.3125.183594-.023438.40625.09375 1.101562.964843 1.609375.632813.363281 1.628907.097656 2.175782-.851563.609375-1.054687-.890625-3.035156-.660156-4.945312 1.160156 1.539062.851562 4.003906 1.90625 4.613281.945312.546875 1.941406.28125 2.304687-.351563.507813-.875.257813-1.535156.03125-1.875-.222656-.339843-.222656-.339843.183594-.316406.40625.023438 1.105469-.089844 1.609375-.964844.363281-.632812.023437-1.671874-.847656-2.175781-1.042969-.601562-2.859376.636719-4.800782.554688 1.542969-1.035157 3.875-.777344 4.464844-1.796875.546875-.949219.28125-1.945313-.351562-2.308594-.875-.503906-1.535157-.257812-1.875-.03125-.339844.222656-.339844.222656-.316407-.183594.023438-.40625-.089843-1.105468-.964843-1.609375zm0 0" fill="url(#g)"/><path d="m8.796875 1.46875c-.574219 0-1.234375.351562-1.605469.996094-.128906.222656-.171875.488281-.160156.78125.007812-.230469.054688-.433594.160156-.617188.507813-.875 1.542969-1.214844 2.175782-.851562.757812.4375.945312 1.019531.964843 1.433594.023438-.410157-.101562-1.097657-.964843-1.597657-.167969-.097656-.363282-.144531-.570313-.144531zm-3.867187 1.050781c-.558594 0-1.0625.234375-1.289063.628907-.238281.414062-.308594.777343-.292969 1.082031.015625-.269531.097656-.578125.292969-.917969.363281-.628906 1.433594-.855469 2.308594-.351562 1 .578124.886719 2.621093 1.800781 4.238281 0-.058594 0-.113281-.003906-.171875-.910156-1.617188-.800782-3.65625-1.796875-4.230469-.328125-.1875-.683594-.277344-1.019531-.277344zm6.578124.621094c-.375.003906-.667968.140625-.859374.265625-.234376.152344-.308594.203125-.320313.085938-.015625.300781.011719.28125.320313.078124.339843-.222656 1-.472656 1.875.03125.375.214844.621093.65625.644531 1.175782.027343-.589844-.230469-1.101563-.644531-1.339844-.382813-.222656-.722657-.296875-1.015626-.296875zm-8.160156 2.195313c-.414062-.003907-1.054687.148437-1.53125.96875-.113281.203124-.167968.441406-.152344.695312.011719-.191406.0625-.371094.152344-.53125.507813-.875 1.203125-.988281 1.609375-.964844.332031.019532.394531.023438.285157-.160156-.050782.011719-.144532.003906-.285157-.003906-.023437 0-.050781-.003906-.078125-.003906zm9.167969 1.488281c-1-.003907-2.375.699219-3.84375.722656-.089844.050781-.175781.101563-.261719.160156 1.941406.082031 3.757813-1.152343 4.800782-.554687.609374.355468.957031.964844.988281 1.515625.039062-.589844-.320313-1.292969-.988281-1.679688-.203126-.117187-.4375-.164062-.695313-.164062zm-5.339844 1.136719c-.003906 0-.003906 0-.007812 0-1.605469.871093-3.597657.777343-4.167969 1.761718-.203125.359375-.289062.75-.273438 1.109375.011719-.3125.097657-.640625.273438-.941406.601562-1.042969 2.792969-.878906 4.433594-1.921875-.085938-.007812-.171875-.007812-.257813-.007812zm.824219.601562c-.03125 1.4375.785156 2.878906.828125 3.90625.046875-1-.796875-2.445312-.828125-3.90625zm4.167969 1.726562c-.097657.019532-.050781.09375.097656.320313.121094.179687.246094.449219.261719.792969.023437-.425782-.125-.75-.261719-.957032-.039063-.0625-.074219-.113281-.097656-.15625zm-6.617188 1.851563c-.003906.03125-.003906.066406-.007812.105469 0 .054687-.003907.113281 0 .175781 0-.003906 0-.007813 0-.011719.007812-.128906.015625-.214844.007812-.269531zm0 0" fill="#fff" fill-opacity=".392157"/><path d="m10.332031 3.007812c-.007812.125-.011719.210938-.003906.257813.003906-.015625.003906-.027344.003906-.042969.003907-.066406.003907-.136718 0-.214844zm-3.300781.035157c-.058594.957031.621094 2.292969.710938 3.730469.003906.003906.003906.011718.007812.015624-.011719-1.417968-.664062-2.75-.71875-3.746093zm-3.679688.984375c-.035156.441406.117188.785156.257813.996094.019531.03125.035156.054687.050781.078124.160156-.003906.117188-.070312-.050781-.324218-.113281-.171875-.234375-.425782-.257813-.75zm9.816407.546875c-.019531.296875-.113281.613281-.292969.925781-.589844 1.019531-2.921875.761719-4.464844 1.796875.144532.007813.285156.003906.429688 0 1.515625-.753906 3.5-.621094 4.035156-1.550781.230469-.402344.316406-.808594.292969-1.171875zm-11.5 2.21875c-.054688.582031.273437 1.265625 1 1.6875.941406.542969 2.625-.597657 4.335937-.679688.148438-.074219.289063-.152343.429688-.242187-1.855469-.125-3.742188 1.265625-4.765625.675781-.625-.363281-.957031-.921875-1-1.441406zm6.355469 1.019531c-.019532.179688-.027344.363281-.019532.546875 0-.101563.007813-.203125.019532-.300781 1.160156 1.539062.851562 4.003906 1.90625 4.613281.945312.546875 1.941406.28125 2.304687-.351563.25-.429687.316406-.808593.292969-1.125-.019532.261719-.105469.554688-.292969.878907-.363281.632812-1.359375.898437-2.304687.351562-1.054688-.609375-.746094-3.074219-1.90625-4.613281zm6.175781.648438c-.015625.164062-.0625.320312-.140625.457031-.503906.875-1.203125.988281-1.609375.964843-.371094-.023437-.402344-.023437-.234375.238282.054687-.003906.132812 0 .234375.007812.40625.023438 1.105469-.089844 1.609375-.964844.117187-.203124.160156-.445312.140625-.703124zm-11.472657 2.164062c-.035156.605469.203126 1.164062.625 1.40625.875.503906 1.539063.257812 1.878907.03125.21875-.144531.296875-.195312.316406-.105469.023437-.363281.007813-.355469-.316406-.140625-.339844.226563-1.003907.472656-1.878907-.03125-.363281-.210937-.589843-.652344-.625-1.160156zm2.820313 1.589844c0 .011718 0 .019531-.003906.03125-.023438.40625.09375 1.101562.964843 1.609375.632813.363281 1.628907.097656 2.175782-.851563.121094-.210937.160156-.460937.140625-.742187-.011719.183593-.054688.347656-.140625.496093-.546875.949219-1.542969 1.214844-2.175782.851563-.730468-.425781-.929687-.984375-.960937-1.394531zm0 0" fill-opacity=".235294"/><path d="m299.721378-163.379929c-20.248066-11.62389-53.369903-.749929-69.618352 27.247398-18.373245 31.871956 17.373341 86.741716 17.873293 146.236035-29.247207-51.745059-25.622553-117.113817-57.619497-135.61205-27.997327-16.12346-62.244056-8.999141-73.867946 11.248926-16.12346 27.997326-8.124224 49.120309-.999905 59.994271 7.249308 10.873961 7.249308 10.873961-5.874439 10.124033-12.998758-.749929-35.246634 2.874725-51.495082 30.872052-11.62389 20.248066-3.124702 52.120022 27.247398 69.618351 32.746873 18.873198 93.116108-25.622553 152.485438-21.622935-52.494987 33.371813-122.613291 28.122315-141.861453 61.36914-16.12346 27.997326-8.874152 62.244056 11.248926 73.867946 27.997327 16.12346 49.245297 8.249212 60.119259.999904 10.873962-7.124319 10.873962-7.124319 9.999045 5.874439-.749928 12.998759 2.999714 35.246634 30.872052 51.495083 20.248066 11.62389 52.120023 3.124701 69.618352-27.247398 19.498138-33.746778-28.497279-97.115726-21.122983-158.234889 37.121455 49.245297 27.247398 128.112765 60.994175 147.610903 30.247112 17.498329 62.119068 8.999141 73.742958-11.248925 16.248449-27.997327 8.249212-49.12031.999905-59.994271-7.12432-10.873962-7.12432-10.873962 5.874439-10.124033 12.998758.749928 35.371622-2.874726 51.495082-30.872052 11.62389-20.248067.749929-53.494892-27.12241-69.618352-33.371813-19.248162-91.491263 20.373054-153.610331 17.748305 49.370286-33.121837 123.98816-24.872625 142.861358-57.49451 17.498329-30.372099 8.99914-62.244055-11.248926-73.867945-27.997326-16.123461-49.120309-8.249213-59.994271-.999905-10.873961 7.12432-10.873961 7.12432-10.124033-5.874439s-2.874726-35.371622-30.872052-51.495082zm0 0" fill="none" stroke="#212121" stroke-linecap="round" stroke-linejoin="round" stroke-width="3" transform="matrix(.031253 0 0 .031253 0 6.719392)"/></svg>

<?xml version="1.0" encoding="UTF-8"?>
<svg xmlns="http://www.w3.org/2000/svg" xmlns:xlink="http://www.w3.org/1999/xlink" width="16px" height="16px" viewBox="0 0 16 16" version="1.1">
<defs>
<radialGradient id="radial0" gradientUnits="userSpaceOnUse" cx="450.908936" cy="189.579361" fx="450.908936" fy="189.579361" r="21.166656" gradientTransform="matrix(0.0000000870852,-0.0390662,-0.0703192,-0.0000000507693,20.607772,31.797665)">
<stop offset="0" style="stop-color:rgb(0%,0%,0%);stop-opacity:0.313726;"/>
<stop offset="0.222222" style="stop-color:rgb(0%,0%,0%);stop-opacity:0.27451;"/>
<stop offset="1" style="stop-color:rgb(0%,0%,0%);stop-opacity:0;"/>
</radialGradient>
<radialGradient id="radial1" gradientUnits="userSpaceOnUse" cx="450.908936" cy="189.579361" fx="450.908936" fy="189.579361" r="21.166656" gradientTransform="matrix(-0.0000000870852,0.0390662,0.0703192,0.0000000507693,-6.385058,-3.763741)">
<stop offset="0" style="stop-color:rgb(0%,0%,0%);stop-opacity:0.313726;"/>
<stop offset="0.222222" style="stop-color:rgb(0%,0%,0%);stop-opacity:0.27451;"/>
<stop offset="1" style="stop-color:rgb(0%,0%,0%);stop-opacity:0;"/>
</radialGradient>
<radialGradient id="radial2" gradientUnits="userSpaceOnUse" cx="450.908936" cy="189.579361" fx="450.908936" fy="189.579361" r="21.166656" gradientTransform="matrix(-0.0000000870852,-0.0390662,0.0703192,-0.0000000507693,-6.385058,31.797665)">
<stop offset="0" style="stop-color:rgb(0%,0%,0%);stop-opacity:0.313726;"/>
<stop offset="0.222222" style="stop-color:rgb(0%,0%,0%);stop-opacity:0.27451;"/>
<stop offset="1" style="stop-color:rgb(0%,0%,0%);stop-opacity:0;"/>
</radialGradient>
<radialGradient id="radial3" gradientUnits="userSpaceOnUse" cx="450.908936" cy="189.579361" fx="450.908936" fy="189.579361" r="21.166656" gradientTransform="matrix(0.0000000870852,0.0390662,-0.0703192,0.0000000507693,20.607771,-3.763741)">
<stop offset="0" style="stop-color:rgb(0%,0%,0%);stop-opacity:0.313726;"/>
<stop offset="0.222222" style="stop-color:rgb(0%,0%,0%);stop-opacity:0.27451;"/>
<stop offset="1" style="stop-color:rgb(0%,0%,0%);stop-opacity:0;"/>
</radialGradient>
<linearGradient id="linear0" gradientUnits="userSpaceOnUse" x1="255.323059" y1="233.5" x2="255.323044" y2="254.666656" gradientTransform="matrix(0.00190858,0,0,0.031253,6.624052,6.719392)">
<stop offset="0" style="stop-color:rgb(0%,0%,0%);stop-opacity:0.27451;"/>
<stop offset="1" style="stop-color:rgb(0%,0%,0%);stop-opacity:0;"/>
</linearGradient>
<linearGradient id="linear1" gradientUnits="userSpaceOnUse" x1="254" y1="233.5" x2="254" y2="-168.666672" gradientTransform="matrix(0.0315728,0,0,0.0315728,-0.0811699,6.700432)">
<stop offset="0" style="stop-color:rgb(40.000001%,73.333335%,41.568628%);stop-opacity:1;"/>
<stop offset="1" style="stop-color:rgb(50.588238%,78.039217%,51.764709%);stop-opacity:1;"/>
</linearGradient>
</defs>
<g id="surface1">
<path style=" stroke:none;fill-rule:nonzero;fill:url(#radial0);" d="M 7.441406 14.015625 L 8.765625 14.015625 L 8.765625 13.355469 L 7.441406 13.355469 Z M 7.441406 14.015625 "/>
<path style=" stroke:none;fill-rule:nonzero;fill:url(#radial1);" d="M 6.78125 14.015625 L 5.457031 14.015625 L 5.457031 14.679688 L 6.78125 14.679688 Z M 6.78125 14.015625 "/>
<path style=" stroke:none;fill-rule:nonzero;fill:url(#radial2);" d="M 6.78125 14.015625 L 5.457031 14.015625 L 5.457031 13.355469 L 6.78125 13.355469 Z M 6.78125 14.015625 "/>
<path style=" stroke:none;fill-rule:nonzero;fill:url(#radial3);" d="M 7.441406 14.015625 L 8.765625 14.015625 L 8.765625 14.679688 L 7.441406 14.679688 Z M 7.441406 14.015625 "/>
<path style=" stroke:none;fill-rule:nonzero;fill:url(#linear0);" d="M 6.78125 13.851562 L 7.441406 13.851562 L 7.441406 14.679688 L 6.78125 14.679688 Z M 6.78125 13.851562 "/>
<path style=" stroke:none;fill-rule:nonzero;fill:url(#linear1);" d="M 9.367188 1.613281 C 8.734375 1.25 7.699219 1.589844 7.191406 2.464844 C 6.617188 3.460938 7.734375 5.175781 7.75 7.035156 C 6.835938 5.417969 6.949219 3.375 5.949219 2.796875 C 5.074219 2.292969 4.003906 2.515625 3.640625 3.148438 C 3.136719 4.023438 3.386719 4.683594 3.609375 5.023438 C 3.835938 5.363281 3.835938 5.363281 3.425781 5.339844 C 3.019531 5.316406 2.324219 5.429688 1.816406 6.304688 C 1.453125 6.9375 1.71875 7.933594 2.667969 8.480469 C 3.691406 9.070312 5.578125 7.679688 7.433594 7.804688 C 5.792969 8.847656 3.601562 8.683594 3 9.722656 C 2.496094 10.597656 2.722656 11.667969 3.351562 12.03125 C 4.226562 12.535156 4.890625 12.289062 5.230469 12.0625 C 5.570312 11.839844 5.570312 11.839844 5.542969 12.246094 C 5.519531 12.652344 5.636719 13.347656 6.507812 13.855469 C 7.140625 14.21875 8.136719 13.953125 8.683594 13.003906 C 9.292969 11.949219 7.792969 9.96875 8.023438 8.058594 C 9.183594 9.597656 8.875 12.0625 9.929688 12.671875 C 10.875 13.21875 11.871094 12.953125 12.234375 12.320312 C 12.742188 11.445312 12.492188 10.785156 12.265625 10.445312 C 12.042969 10.105469 12.042969 10.105469 12.449219 10.128906 C 12.855469 10.152344 13.554688 10.039062 14.058594 9.164062 C 14.421875 8.53125 14.082031 7.492188 13.210938 6.988281 C 12.167969 6.386719 10.351562 7.625 8.410156 7.542969 C 9.953125 6.507812 12.285156 6.765625 12.875 5.746094 C 13.421875 4.796875 13.15625 3.800781 12.523438 3.4375 C 11.648438 2.933594 10.988281 3.179688 10.648438 3.40625 C 10.308594 3.628906 10.308594 3.628906 10.332031 3.222656 C 10.355469 2.816406 10.242188 2.117188 9.367188 1.613281 Z M 9.367188 1.613281 "/>
<path style=" stroke:none;fill-rule:nonzero;fill:rgb(100%,100%,100%);fill-opacity:0.392157;" d="M 8.796875 1.46875 C 8.222656 1.46875 7.5625 1.820312 7.191406 2.464844 C 7.0625 2.6875 7.019531 2.953125 7.03125 3.246094 C 7.039062 3.015625 7.085938 2.8125 7.191406 2.628906 C 7.699219 1.753906 8.734375 1.414062 9.367188 1.777344 C 10.125 2.214844 10.3125 2.796875 10.332031 3.210938 C 10.355469 2.800781 10.230469 2.113281 9.367188 1.613281 C 9.199219 1.515625 9.003906 1.46875 8.796875 1.46875 Z M 4.929688 2.519531 C 4.371094 2.519531 3.867188 2.753906 3.640625 3.148438 C 3.402344 3.5625 3.332031 3.925781 3.347656 4.230469 C 3.363281 3.960938 3.445312 3.652344 3.640625 3.3125 C 4.003906 2.683594 5.074219 2.457031 5.949219 2.960938 C 6.949219 3.539062 6.835938 5.582031 7.75 7.199219 C 7.75 7.140625 7.75 7.085938 7.746094 7.027344 C 6.835938 5.410156 6.945312 3.371094 5.949219 2.796875 C 5.621094 2.609375 5.265625 2.519531 4.929688 2.519531 Z M 11.507812 3.140625 C 11.132812 3.144531 10.839844 3.28125 10.648438 3.40625 C 10.414062 3.558594 10.339844 3.609375 10.328125 3.492188 C 10.3125 3.792969 10.339844 3.773438 10.648438 3.570312 C 10.988281 3.347656 11.648438 3.097656 12.523438 3.601562 C 12.898438 3.816406 13.144531 4.257812 13.167969 4.777344 C 13.195312 4.1875 12.9375 3.675781 12.523438 3.4375 C 12.140625 3.214844 11.800781 3.140625 11.507812 3.140625 Z M 3.347656 5.335938 C 2.933594 5.332031 2.292969 5.484375 1.816406 6.304688 C 1.703125 6.507812 1.648438 6.746094 1.664062 7 C 1.675781 6.808594 1.726562 6.628906 1.816406 6.46875 C 2.324219 5.59375 3.019531 5.480469 3.425781 5.503906 C 3.757812 5.523438 3.820312 5.527344 3.710938 5.34375 C 3.660156 5.355469 3.566406 5.347656 3.425781 5.339844 C 3.402344 5.339844 3.375 5.335938 3.347656 5.335938 Z M 12.515625 6.824219 C 11.515625 6.820312 10.140625 7.523438 8.671875 7.546875 C 8.582031 7.597656 8.496094 7.648438 8.410156 7.707031 C 10.351562 7.789062 12.167969 6.554688 13.210938 7.152344 C 13.820312 7.507812 14.167969 8.117188 14.199219 8.667969 C 14.238281 8.078125 13.878906 7.375 13.210938 6.988281 C 13.007812 6.871094 12.773438 6.824219 12.515625 6.824219 Z M 7.175781 7.960938 C 7.171875 7.960938 7.171875 7.960938 7.167969 7.960938 C 5.5625 8.832031 3.570312 8.738281 3 9.722656 C 2.796875 10.082031 2.710938 10.472656 2.726562 10.832031 C 2.738281 10.519531 2.824219 10.191406 3 9.890625 C 3.601562 8.847656 5.792969 9.011719 7.433594 7.96875 C 7.347656 7.960938 7.261719 7.960938 7.175781 7.960938 Z M 8 8.5625 C 7.96875 10 8.785156 11.441406 8.828125 12.46875 C 8.875 11.46875 8.03125 10.023438 8 8.5625 Z M 12.167969 10.289062 C 12.070312 10.308594 12.117188 10.382812 12.265625 10.609375 C 12.386719 10.789062 12.511719 11.058594 12.527344 11.402344 C 12.550781 10.976562 12.402344 10.652344 12.265625 10.445312 C 12.226562 10.382812 12.191406 10.332031 12.167969 10.289062 Z M 5.550781 12.140625 C 5.546875 12.171875 5.546875 12.207031 5.542969 12.246094 C 5.542969 12.300781 5.539062 12.359375 5.542969 12.421875 C 5.542969 12.417969 5.542969 12.414062 5.542969 12.410156 C 5.550781 12.28125 5.558594 12.195312 5.550781 12.140625 Z M 5.550781 12.140625 "/>
<path style=" stroke:none;fill-rule:nonzero;fill:rgb(0%,0%,0%);fill-opacity:0.235294;" d="M 10.332031 3.007812 C 10.324219 3.132812 10.320312 3.21875 10.328125 3.265625 C 10.332031 3.25 10.332031 3.238281 10.332031 3.222656 C 10.335938 3.15625 10.335938 3.085938 10.332031 3.007812 Z M 7.03125 3.042969 C 6.972656 4 7.652344 5.335938 7.742188 6.773438 C 7.746094 6.777344 7.746094 6.785156 7.75 6.789062 C 7.738281 5.371094 7.085938 4.039062 7.03125 3.042969 Z M 3.351562 4.027344 C 3.316406 4.46875 3.46875 4.8125 3.609375 5.023438 C 3.628906 5.054688 3.644531 5.078125 3.660156 5.101562 C 3.820312 5.097656 3.777344 5.03125 3.609375 4.777344 C 3.496094 4.605469 3.375 4.351562 3.351562 4.027344 Z M 13.167969 4.574219 C 13.148438 4.871094 13.054688 5.1875 12.875 5.5 C 12.285156 6.519531 9.953125 6.261719 8.410156 7.296875 C 8.554688 7.304688 8.695312 7.300781 8.839844 7.296875 C 10.355469 6.542969 12.339844 6.675781 12.875 5.746094 C 13.105469 5.34375 13.191406 4.9375 13.167969 4.574219 Z M 1.667969 6.792969 C 1.613281 7.375 1.941406 8.058594 2.667969 8.480469 C 3.609375 9.023438 5.292969 7.882812 7.003906 7.800781 C 7.152344 7.726562 7.292969 7.648438 7.433594 7.558594 C 5.578125 7.433594 3.691406 8.824219 2.667969 8.234375 C 2.042969 7.871094 1.710938 7.3125 1.667969 6.792969 Z M 8.023438 7.8125 C 8.003906 7.992188 7.996094 8.175781 8.003906 8.359375 C 8.003906 8.257812 8.011719 8.15625 8.023438 8.058594 C 9.183594 9.597656 8.875 12.0625 9.929688 12.671875 C 10.875 13.21875 11.871094 12.953125 12.234375 12.320312 C 12.484375 11.890625 12.550781 11.511719 12.527344 11.195312 C 12.507812 11.457031 12.421875 11.75 12.234375 12.074219 C 11.871094 12.707031 10.875 12.972656 9.929688 12.425781 C 8.875 11.816406 9.183594 9.351562 8.023438 7.8125 Z M 14.199219 8.460938 C 14.183594 8.625 14.136719 8.78125 14.058594 8.917969 C 13.554688 9.792969 12.855469 9.90625 12.449219 9.882812 C 12.078125 9.859375 12.046875 9.859375 12.214844 10.121094 C 12.269531 10.117188 12.347656 10.121094 12.449219 10.128906 C 12.855469 10.152344 13.554688 10.039062 14.058594 9.164062 C 14.175781 8.960938 14.21875 8.71875 14.199219 8.460938 Z M 2.726562 10.625 C 2.691406 11.230469 2.929688 11.789062 3.351562 12.03125 C 4.226562 12.535156 4.890625 12.289062 5.230469 12.0625 C 5.449219 11.917969 5.527344 11.867188 5.546875 11.957031 C 5.570312 11.59375 5.554688 11.601562 5.230469 11.816406 C 4.890625 12.042969 4.226562 12.289062 3.351562 11.785156 C 2.988281 11.574219 2.761719 11.132812 2.726562 10.625 Z M 5.546875 12.214844 C 5.546875 12.226562 5.546875 12.234375 5.542969 12.246094 C 5.519531 12.652344 5.636719 13.347656 6.507812 13.855469 C 7.140625 14.21875 8.136719 13.953125 8.683594 13.003906 C 8.804688 12.792969 8.84375 12.542969 8.824219 12.261719 C 8.8125 12.445312 8.769531 12.609375 8.683594 12.757812 C 8.136719 13.707031 7.140625 13.972656 6.507812 13.609375 C 5.777344 13.183594 5.578125 12.625 5.546875 12.214844 Z M 5.546875 12.214844 "/>
<path style="fill:none;stroke-width:3;stroke-linecap:round;stroke-linejoin:round;stroke:rgb(12.941177%,12.941177%,12.941177%);stroke-opacity:1;stroke-miterlimit:4;" d="M 299.721378 -163.379929 C 279.473312 -175.003819 246.351475 -164.129858 230.103026 -136.132531 C 211.729781 -104.260575 247.476367 -49.390815 247.976319 10.103504 C 218.729112 -41.641555 222.353766 -107.010313 190.356822 -125.508546 C 162.359495 -141.632006 128.112766 -134.507687 116.488876 -114.25962 C 100.365416 -86.262294 108.364652 -65.139311 115.488971 -54.265349 C 122.738279 -43.391388 122.738279 -43.391388 109.614532 -44.141316 C 96.615774 -44.891245 74.367898 -41.266591 58.11945 -13.269264 C 46.49556 6.978802 54.994748 38.850758 85.366848 56.349087 C 118.113721 75.222285 178.482956 30.726534 237.852286 34.726152 C 185.357299 68.097965 115.238995 62.848467 95.990833 96.095292 C 79.867373 124.092618 87.116681 158.339348 107.239759 169.963238 C 135.237086 186.086698 156.485056 178.21245 167.359018 170.963142 C 178.23298 163.838823 178.23298 163.838823 177.358063 176.837581 C 176.608135 189.83634 180.357777 212.084215 208.230115 228.332664 C 228.478181 239.956554 260.350138 231.457365 277.848467 201.085266 C 297.346605 167.338488 249.351188 103.96954 256.725484 42.850377 C 293.846939 92.095674 283.972882 170.963142 317.719659 190.46128 C 347.966771 207.959609 379.838727 199.460421 391.462617 179.212355 C 407.711066 151.215028 399.711829 130.092045 392.462522 119.218084 C 385.338202 108.344122 385.338202 108.344122 398.336961 109.094051 C 411.335719 109.843979 433.708583 106.219325 449.832043 78.221999 C 461.455933 57.973932 450.581972 24.727107 422.709633 8.603647 C 389.33782 -10.644515 331.21837 28.976701 269.099302 26.351952 C 318.469588 -6.769885 393.087462 1.479327 411.96066 -31.142558 C 429.458989 -61.514657 420.9598 -93.386613 400.711734 -105.010503 C 372.714408 -121.133964 351.591425 -113.259716 340.717463 -106.010408 C 329.843502 -98.886088 329.843502 -98.886088 330.59343 -111.884847 C 331.343358 -124.883606 327.718704 -147.256469 299.721378 -163.379929 Z M 299.721378 -163.379929 " transform="matrix(0.031253,0,0,0.031253,0,6.719392)"/>
</g>
</svg>
